src/topics/icons/kafka.svg

<svg height="416" preserveAspectRatio="xMidYMid" viewBox="0 0 256 416" width="256" xmlns="http://www.w3.org/2000/svg"><path d="m201.816 230.216c-16.186 0-30.697 7.171-40.634 18.461l-25.463-18.026c2.703-7.442 4.255-15.433 4.255-23.797 0-8.219-1.498-16.076-4.112-23.408l25.406-17.835c9.936 11.233 24.409 18.365 40.548 18.365 29.875 0 54.184-24.305 54.184-54.184s-24.309-54.184-54.184-54.184-54.184 24.305-54.184 54.184c0 5.348.808 10.505 2.258 15.389l-25.423 17.844c-10.62-13.175-25.911-22.374-43.333-25.182v-30.64c24.544-5.155 43.037-26.962 43.037-53.019 0-29.879-24.309-54.184-54.184-54.184s-54.184 24.305-54.184 54.184c0 25.708 18.014 47.246 42.067 52.769v31.038c-32.826 5.762-57.87 34.41-57.87 68.863 0 34.621 25.292 63.374 58.355 68.94v32.774c-24.299 5.341-42.552 27.011-42.552 52.894 0 29.879 24.309 54.184 54.184 54.184s54.184-24.305 54.184-54.184c0-25.883-18.253-47.553-42.552-52.894v-32.775c17.079-2.876 32.089-11.893 42.6-24.776l25.633 18.143c-1.423 4.84-2.22 9.946-2.22 15.24 0 29.879 24.309 54.184 54.184 54.184s54.184-24.305 54.184-54.184-24.309-54.184-54.184-54.184zm0-126.695c14.487 0 26.27 11.788 26.27 26.271s-11.783 26.27-26.27 26.27-26.27-11.787-26.27-26.27 11.783-26.271 26.27-26.271zm-158.1-49.337c0-14.483 11.784-26.27 26.271-26.27s26.27 11.787 26.27 26.27-11.783 26.27-26.27 26.27-26.271-11.787-26.271-26.27zm52.541 307.278c0 14.483-11.783 26.27-26.27 26.27s-26.271-11.787-26.271-26.27 11.784-26.27 26.271-26.27 26.27 11.787 26.27 26.27zm-26.272-117.97c-20.205 0-36.642-16.434-36.642-36.638 0-20.205 16.437-36.642 36.642-36.642 20.204 0 36.641 16.437 36.641 36.642 0 20.204-16.437 36.638-36.641 36.638zm131.831 67.179c-14.487 0-26.27-11.788-26.27-26.271s11.783-26.27 26.27-26.27 26.27 11.787 26.27 26.27-11.783 26.271-26.27 26.271z"/></svg>

<?xml version="1.0" encoding="UTF-8" standalone="no"?>
<svg width="256px" height="416px" viewBox="0 0 256 416" version="1.1" xmlns="http://www.w3.org/2000/svg" xmlns:xlink="http://www.w3.org/1999/xlink" preserveAspectRatio="xMidYMid">
    <g>
        <path d="M201.816,230.216 C185.63,230.216 171.119,237.387 161.182,248.677 L135.719,230.651 C138.422,223.209 139.974,215.218 139.974,206.854 C139.974,198.635 138.476,190.778 135.862,183.446 L161.268,165.611 C171.204,176.844 185.677,183.976 201.816,183.976 C231.691,183.976 256,159.671 256,129.792 C256,99.913 231.691,75.608 201.816,75.608 C171.941,75.608 147.632,99.913 147.632,129.792 C147.632,135.14 148.44,140.297 149.89,145.181 L124.467,163.025 C113.847,149.85 98.556,140.651 81.134,137.843 L81.134,107.203 C105.678,102.048 124.171,80.241 124.171,54.184 C124.171,24.305 99.862,0 69.987,0 C40.112,0 15.803,24.305 15.803,54.184 C15.803,79.892 33.817,101.43 57.87,106.953 L57.87,137.991 C25.044,143.753 0,172.401 0,206.854 C0,241.475 25.292,270.228 58.355,275.794 L58.355,308.568 C34.056,313.909 15.803,335.579 15.803,361.462 C15.803,391.341 40.112,415.646 69.987,415.646 C99.862,415.646 124.171,391.341 124.171,361.462 C124.171,335.579 105.918,313.909 81.619,308.568 L81.619,275.793 C98.698,272.917 113.708,263.9 124.219,251.017 L149.852,269.16 C148.429,274 147.632,279.106 147.632,284.4 C147.632,314.279 171.941,338.584 201.816,338.584 C231.691,338.584 256,314.279 256,284.4 C256,254.521 231.691,230.216 201.816,230.216 L201.816,230.216 Z M201.816,103.521 C216.303,103.521 228.086,115.309 228.086,129.792 C228.086,144.275 216.303,156.062 201.816,156.062 C187.329,156.062 175.546,144.275 175.546,129.792 C175.546,115.309 187.329,103.521 201.816,103.521 L201.816,103.521 Z M43.716,54.184 C43.716,39.701 55.5,27.914 69.987,27.914 C84.474,27.914 96.257,39.701 96.257,54.184 C96.257,68.667 84.474,80.454 69.987,80.454 C55.5,80.454 43.716,68.667 43.716,54.184 L43.716,54.184 Z M96.257,361.462 C96.257,375.945 84.474,387.732 69.987,387.732 C55.5,387.732 43.716,375.945 43.716,361.462 C43.716,346.979 55.5,335.192 69.987,335.192 C84.474,335.192 96.257,346.979 96.257,361.462 L96.257,361.462 Z M69.985,243.492 C49.78,243.492 33.343,227.058 33.343,206.854 C33.343,186.649 49.78,170.212 69.985,170.212 C90.189,170.212 106.626,186.649 106.626,206.854 C106.626,227.058 90.189,243.492 69.985,243.492 L69.985,243.492 Z M201.816,310.671 C187.329,310.671 175.546,298.883 175.546,284.4 C175.546,269.917 187.329,258.13 201.816,258.13 C216.303,258.13 228.086,269.917 228.086,284.4 C228.086,298.883 216.303,310.671 201.816,310.671 L201.816,310.671 Z" fill="#000000"></path>
    </g>
</svg>
